X:1
T:Title
%%score 1 2 3
L:1/8
M:3/2
K:F
V:1 treble nm="Part_1"
V:2 bass nm="Part_2"
V:3 bass nm="Part_3"
V:1
 z4 z4 z/ A/B/c<dc/ | B4 z4 z/ G/A/B<cB/ |[M:2/2] A/F/G/A<BA/ G/G/A/B<cB/ | %3
w: Et ad- mi- ra- bi-|le Et ad- mi- ra- bi-|le et- ad- mi- ra- bi- le * etad- mi- ra- bi-|
 A/A/B/c<dc/ B/B/c/d<_ed/ | c2 A2 B3 A |[M:4/2] G4 F4 z2 d4 A2 |[M:3/2] B4 A4 d2 dd | %7
w: le et ad- mi- ra- bi- le et ad- mi- ra- bi-|le est no- men|Ie- su O quam|ma- gnum Et ad- mi-|
[M:2/2] d>ddd cB A2 |[M:4/2] G4 E4 F2 G2 G4 |[M:3/2] F4 z8 |[M:2/2] z8 | z4 B4 | %12
w: ra- bi- le est no- men Ie-|su est no- men Ie-|su||O|
[M:3/2] =B2 BB c4 ^c2 cc |[M:4/8] d4 |[M:6/2] =B8 z4 z12 | c6 B2 A4 B4 G8 | F12 z12 | %17
w: * z!:Sle- men- tis- * si- me|Ie-|su|e- ci- pe cor me-|um|
 z12 d6 c2 B4 |[M:3/2] A4 A2 B2 c4 |[M:3/2] A4 BA/G/A B/c/ d3 e |[M:2/2] ^c d2 c d4 | z4 GA/B<cd/ | %22
w: ac- ci- pe|a- ni- mam me-|am a- ni- mam me- * * * *|* * * am|a- ni- mam me- *|
 =B c2 B c4 | z8 | z8 |[M:3/2] z2 c2 d3 c/B/ c2 A2 | %26
w: * * * am|||et sal- vum me fac in|
[M:4/2] d2 dc BA G3 F/E/F/D/4E/4F/4G/4A/4B/4 c3 G | AFAB c/B/A/G/F/G/A/F/ G2 F2 z4 |[M:2/2] z8 | %29
w: tu- a mi- se- ri- cor- * * * * * * * * * * di-|a ut non con- fun- * * * * * * * * dar||
 z2 z F GG A/B/c/A/ |[M:3/2] =B c2 B c4 z4 |[M:6/2] F4 A4 B4 c4 A2 B4 G2 | A2 B2 c2 A2 =B4 c12 | %33
w: ut non con fun- * * *|* * * dar|ut non con fun- dar non con|un- * * * * dar|
 z12 z12 | z12 c4 A4 F4 | c4 c2 B4 B2 A2 B2 c2 d2 c4 |[M:6/2] A4 d6 c2 B4 A8 |] %37
w: |ut non con|un dar non con fun- * * * *|dar non con- fun- dar|
V:2
 F,6 ^C,2 D,4 | G,,2 _E,4 =B,,2 C,4 |[M:2/2] F,,2 z/ B,,/C,/D,/ _E,>D, C,/C,/D,/E,/ | %3
w: O Quam ma-|gnum o quam ma-|gnum Et ad- mi ra- bi- le * etad- mi|
 F,>_E, D,/D,/E,/F,/ G,>F,E,C, | F,/G,/A,/G,/F,/E,/D,/C,/ B,,2 F,,2 |[M:4/2] C,4 F,,4 B,,6 A,,2 | %6
w: ra- bi- le et ad- mi- ra- bi- le Est|no- * * * * * * * * men|Ie- su o quam|
[M:3/2] G,,4 D,4 B,,2 B,,B,, |[M:2/2] B,>B,B,B, F,G, D,2 |[M:4/2] G,,4 C,4 A,,2 B,,2 C,4 | %9
w: ma- gnum et ad- mi-|ra- bi- le est no- men Ie-|su est no- men Ie-|
[M:3/2] F,,4 F,4 ^F,2 F,F, |[M:2/2] G,4 ^G,2 G,G, | A,/G,/F,/E,<D,D,/ B,,3 A,, | %12
w: su O * z!:Sle- men-|tis- * si- me|Ie- * * * * * * *|
[M:3/2] G,,4 C,4 z4 |[M:4/8] z4 |[M:6/2] G,6 F,2 E,4 F,4 D,8 | C,8 z4 z12 | F,6 E,2 D,4 _E,4 C,8 | %17
w: * su||Ac- ci- pe cor me-|um|Ac- ci- pe cor me-|
 B,,12 B,,6 A,,2 B,,4 |[M:3/2] F,4 F,2 D,2 C,4 |[M:3/2] F,4 z4 z4 |[M:2/2] z4 D,E,/F,<G,A,/ | %21
w: um Ac- ci- pe|a- ni- mam me-|am|a- ni- mam me- *|
 ^F, G,2 F, G,2 z2 | z4 z2 C,2 | D,3 C,/B,,/ C,2 F,2 | D,2 D,C, B,,A,,G,,>G,, | %25
w: * * * am|et|sal- vum me fac in|tu- a mi- se- ri- cor- di-|
[M:3/2] F,,2 A,,2 B,,2 G,,2 F,,G,,A,,F,, |[M:4/2] B,,3 A,, G,,4 C,2 D,2 C,3 C, | %27
w: a mi- se- ri- cor- * * *|* * * * * * di-|
 F,,4 z4 z2 z F,, A,,B,, C,/B,,/A,,/G,,/ |[M:2/2] F,,/G,,/A,,/F,,/B,,/C,/D,/E,/F,/G,/A,/F,/ G,2 | %29
w: a Ut non con- fun- * * *||
 C,C,D,D, E,/F,/G,/E,/F,/G,/A,/F,/ |[M:3/2] G,E, D,2 C,2 A,,3 B,, G,,2 |[M:6/2] F,,8 z4 z12 | %32
w: dar ut non con- fun- * * * * * * *|* * * dar non con- fun-|dar|
 z12 C,4 E,4 F,4 | G,4 E,2 F,4 D,2 C,2 D,2 E,2 F,2 G,4 | C,12 F,,4 A,,4 B,,4 | %35
w: ut non con-|fun- dar non con- * * * * fun-|dar ut non con-|
 C,4 A,,2 B,,4 G,,2 F,,2 G,,2 A,,2 B,,2 C,4 |[M:6/2] F,,4 B,,6 A,,2 B,,4 F,,8 |] %37
w: fun- dar non con- fun- * * * *|dar non con- fun- dar|
V:3
 F,6 ^C,2 D,4 | G,,2 _E,4 =B,,2 C,4 |[M:2/2] F,,2 z/ B,,/C,/D,/ _E,3/2 D,/C,/C,/D,/E,/ | %3
 F,>_E,D,/D,/E,/F,<G,F,/E,C, | F,/G,/A,/G,/F,/E,/D,/C,/ B,,2 F,,2 |[M:4/2] C,4 F,,4 B,,6 A,,2 | %6
[M:3/2] G,,4 D,4 B,,2 B,,B,, |[M:2/2] B,>B,B,B,F,G, D,2 |[M:4/2] G,,4 C,4 A,,2 B,,2 C,4 | %9
[M:3/2] F,,4 F,4 ^F,2 F,F, |[M:2/2] G,4 ^G,2 G,G, | A,/G,/F,/E,<D,D,/ B,,3 A,, | %12
[M:3/2] G,,4 C,4 A,,2 A,,A,, |[M:4/8] D,4 |[M:6/2] G,6 F,2 E,4 F,4 D,8 | C,8 F,4 B,,4 C,8 | %16
 F,6 E,2 D,4 _E,4 C,8 | B,,12 B,,6 A,,2 B,,4 |[M:3/2] F,4 F,2 D,2 C,4 | %19
[M:3/2] F,,2 F,2 G,F,/E,<D,D,/B,,A,, G,,2 |[M:2/2] A,,4 D,E,/F,<G,A,/ | ^F, G,2 F, G,2 A,>B, | %22
 G,E, D,2 C,2 C,2 | D,3 C,/B,,/ C,2 F,2 | D,2 D,C,B,,A,,G,,>G,, | %25
[M:3/2] F,,2 A,,2 B,,2 G,,2 F,,G,,A,,F,, |[M:4/2] B,,3 A,, G,,4 C,2 D,2 C,4 | %27
 F,,4 F,,4 C,2 F,,F,,A,,B,, C,/B,,/A,,/G,,/ | %28
[M:2/2] F,,/G,,/A,,/F,,/B,,/C,/D,/E,/F,/G,/A,/F,/ G,2 | C,C,D,D, E,/F,/G,/E,/F,/G,/A,/F,/ | %30
[M:3/2] G,E, D,2 C,2 A,,3 B,, G,,2 |[M:6/2] F,,4 F,,4 B,,4 F,,4 F,,2 B,,4 C,2 | %32
 F,,2 G,,2 A,,2 F,,2 G,,4 C,4 E,4 F,4 | G,4 E,2 F,4 D,2 C,2 D,2 E,2 F,2 G,4 | C,12 F,,4 A,,4 B,,4 | %35
 C,4 A,,2 B,,4 G,,2 F,,2 G,,2 A,,2 B,,2 C,4 |[M:6/2] F,,4 B,,6 A,,2 B,,4 F,,8 |] %37

